-----BEGIN PGP PUBLIC KEY BLOCK-----

mQINBFFgfvQBEACXekK2FieZi/3p+/AO2xV7oZX5xpqUah0mR9PbWOeIMqYnc66o
WGJDD3Ps2RIf27x6Yaio5fshjcJzrQ8ijDzerNEc4ippDrMcEL9TWi5MQ6HgsO2i
PivdGSWoZivSxj/FSDQROTMaPK5BaEBDwc9h3CmGi6fxOlHk45tFpV7jPjOkKXeQ
3ZD4htoxrr3KATdzdJr4GC/eZR7U8/HmenR4yOEQDG+a3K+wF80mOuU8kpRafl9V
xNDjvjwPNX5Wa4EfqtYMSeVABiUq5X9L9ZRFqzR9dQFU/qnOlWlr5zP1k4QbzDrs
eE8pE0Cxs6xLIzV/aqLKJyoTMUR4/opC9F9gbetqeDpKEIZnaZlmljEQiEJiSmaO
gUliztzaqOu8EO2mbFHu/0UIleWnAzJIGXMajI//mbPTM6/FZjrhRf6I1s2JaccG
sjCAPV0VEgxEEY6icm39bUW3gxfKMbzQjannFeO8t3WgS5RuuCDdRJq67aBOeCu6
2KD5lkMiLX4Fb7s5ZaUjttjDNPQjbaueIfkvpYEFWPs7ACxlKjuMW2OKu8Smz1eZ
VgErQMkgCYRhdTDiQZXSXa1ieKR+YvMj49q0gQIUVunSMUK84ueKZQqIf+pb3A+z
tJpbi6NNdu/uh/hD6/2E8viUKBTOREbHMyrOImnNOsSvSe6B7JhOkv9yvwARAQAB
tDBBbmRyZWFzIEsuIEh1ZXR0ZWwgKGF0IHdvcmspIDxtYWlsQGFraHVldHRlbC5k
ZT6JAlcEEwEKAEECGwMFCwkIBwMFFQoJCAsFFgMCAQACHgECF4ACGQEWIQQ1sX31
dSV3ygxUHOuUv99EhK0ULwUCZhGSfwUJGHN6iwAKCRCUv99EhK0ULzqRD/9pEcHw
XmFBL8mjL+dRp8vp4FjhhoMIpacG6yajVZKvcVP/w88WpRYrpvPq7SIUHMqp7CBT
qIluXmI5uyIEhX2XECq0F6kHIZBYNupXf+TkoLHbc++DQBDvjxdWae6MuTl/O/Sz
F7aLPQ2quY00YvGYkjmyJvhSzAArDF0tMrPSkzoTGC0Z/jp3Cpm7NFM4HM1D6fgM
SSoc2fDOQyEqNm4zGqOkcRQZoL1t5ia/gfPj3U7GJpwO2g6OEM4xKFG/dTCKbfK+
4tDOFWajvTAhTsDLVPB/Ih+TOOqrqtKqeWC3RYGfElFBD7tc69ETM+c7bYQ/rokc
woptONfVmvuRc/fQuKnhvE32/B9bP6lhB0866BpOKG38svNzlin1SieTVK4X6OzD
H76FIXQzZNdQmGNxaa+p0n6UbTHYKJQXQQpUpleuLUPdLS2j/6f0JyxgySuMuYbf
Q9STcY/Z0x8K5psvDQcZFwhZBWHEY56q9bIYWQXYKFJbDZUrzekBJ7ZA8JlSwgo0
cv45PL3+hrMb9AkwouUvdV5HtESnPKBB0j8gJNSpAln5pc6L4Qs0an0NjAOXkD4t
SNbrGBF0hLdjxgQ/oKyrUr0CzmHiOrjBHbImt5S7PZhXvgHG2Lf7nNxO7s/i2+LC
U7BqY1Oq82Enpxfs0Agm1Z+Spk+gMQvOjOAp7LQtRHIuIEFuZHJlYXMgS2xhdXMg
SMO8dHRlbCA8bWFpbEBha2h1ZXR0ZWwuZGU+iQJUBBMBCgA+FiEENbF99XUld8oM
VBzrlL/fRIStFC8FAmYRktMCGwMFCRhzeosFCwkIBwMFFQoJCAsFFgMCAQACHgEC
F4AACgkQlL/fRIStFC+84A//bsgQ32KRSmk+L9DDyxUwmW9p3Sd5hHPJ9Vo9znkq
fGHcBSqMuf4SBTyCXoV1NqxhCIMz0efpMXxN/oyCt3Tvi8Xxbc9oDW399W22rY9H
LJTNEdYIbq02XqnbB/qYVR1ZS6zcVvXO/yYuEruZEZW6P5ywLb70ByEqHsE11nwR
wvvPtO9+4BLs+8D8HpSvF+jIwe4WoroBY2ofqTokI1CRAhQyr10p/5xlG3aIcNFL
OTWv3mhiILwqdjCwiEWK4dZpcdeEUu7imBTBHASLTgqfsy1g+HHlOGygV8592nsE
vTj1bAx3gVn9A29BmkZWvmqgjj7mToGTbBd9tC91giRr5qRJtItFYOGisglX2LU2
gZsBEru+TToHMjPHV/btiLIEEJcTzKqZ25lSBhRoze4AoGnoaQhuX4fSIKpefEfP
Rvtv3fIaxLM9J+ICRkqUWKZEEIop/p18nYF3AvaCdO1E+SjkWTaYhZ0GevfLV8z5
FAXA9UaiIz5dxaf2tYcXlfDcs0mrAgEZt68tTCYZw3AxtLDElCk8hNH5O1/Fzh1L
cO9iDRsXYPqojWpfIN0HcHp7Hf8jGZzeCue9SN7pH3cFUgaA0lpwPoGag46fmUr8
LBsOF29+tUF6kTLn7tIoxYXxq53D5vs8wbZLYBI0j/nAJ3GxtxQ5bWC0L7Y2oAbl
Ik60J0FuZHJlYXMgSy4gSHVldHRlbCA8YWtodWV0dGVsQGNwYW4ub3JnPokCVAQT
AQoAPgIbAwULCQgHAwUVCgkICwUWAwIBAAIeAQIXgBYhBDWxffV1JXfKDFQc65S/
30SErRQvBQJmEZKSBQkYc3qLAAoJEJS/30SErRQvTKcQAJOXqrKPDSzH6P9kqwF3
WrazqCpqT8gAKFkFo76yY2Fw5X+Deg7cMyvxOueyvWghr5YIn2P2GoHpNFrmvx6o
k9BiDQQ+AiA/ps3YN8b8OSEXSlIJsiLv0qPUi2XJr77oZkh49TF+PCoG22uAI853
JX4cyB64miIgEHaMlKXboJRwHlgem3givsAEBeb6bDjQraBg13hkqflr9WL1hDXm
+wr7+ne8Eqil3njQszeQPqnTtg3ebWaJj/H/xtrmhHm3RAFca9Z/as8sSUZzezrw
A71857OC2OslcmrkeWTY1wONuIjMV2GWuPJYOdYjYsB1QTmGZZb+Eu6i/ESHuqSa
1tLJMGQdDQ+wk0CgZpfIGUjoZGdjim9aUCg5hihFn7vUWh32D11zJUT9qDqw0DsC
689bKfEywKYO8xs8TkKM9HujiLPnz7ZB6DjqP4odYxgro5EC29Nsz5bwCnzlZ7+w
vypRhERx3DbqngqDvEgZcVKwjYinaIZq5x1wdfrSGbbdkT5deRuFlx6oMFJB9Io3
do4AiFFjCqxBVJdtDc/mI5lsRRXuHnT3/KVovjtPpkyzB5QOl/532TwZpyjdNafl
hxPMOBwaFHIsv9+og26cnmVvqazUCyvjN+3mKHjFCe9xIWhGWlz9X3mG4ndtP7Uc
2Y0/R+JNtIrlJMqho12JBQqutCVBbmRyZWFzIEsuIEh1ZXR0ZWwgPGFraHVldHRl
bEB3ZWIuZGU+iQJUBBMBCgA+AhsDBQsJCAcDBRUKCQgLBRYDAgEAAh4BAheAFiEE
NbF99XUld8oMVBzrlL/fRIStFC8FAmYRkpAFCRhzeosACgkQlL/fRIStFC8+DQ/6
AmTYqm4O0gsSztc3FDghoMevB1tz52QZH9vrIe2XMcvKxswVGJedcd6lyGRyXHQs
vk6cTLDpwWp5FFReCmOmSiWxMSaGCslyGDSOZkhEGp7jPnMvkbo3FEk9+UAB6B3X
ggbRtYIGKSi9CTkWkPYfM+BAj7mpD1qe1z45sV+de0mKvJohmL3a2MWLpR+2yN9e
BW3a+gY9ka2OkvLYpH25PS2cc2SIxjUjLmyzWzOg8mzhnRvTttFKauaJsrHg+0A2
rIeKyV6X+nguHLBV+PnM0eUWXcGcNfskD8zmyPr64AC4HC2qEr46R63lihLnqEmA
CmE551EjubS5dKKuAiUwSEePQQrLYiICpTH5jIr0z+CIjwRtJWDYGrASdQFdUxk0
0NoxaSHgEUTL+chJvqc0ksTaQoB4ertACFD7pjtlgK6H1ZNPqQDF6B/bDm9Vfpdw
OgFoVjNNFJPGpq2aH78nZsn7RelKzy0A3RgK0b/BgFlyDfApe+5vXIdQx7vwPC39
I3/QvSL0FEA+N97p4xfv66Qt51mXCIP+NKqAge7mYL7qSg4hprH0EhcSpIyZEFd/
R1nsH+nAUwQavNFUEJlcebvoboNtxvmEHrUW7xkObbfvoz1bhx6IyGaOzzaXHRtk
QDZEmA/1U9kadZ9W+XW+/nnJbAsIVcyjIuXVSjl3zYi0KUFuZHJlYXMgSy4gSHVl
dHRlbCA8YW5kcmVhc0Bha2h1ZXR0ZWwuZGU+iQJUBBMBCgA+AhsDBQsJCAcDBRUK
CQgLBRYDAgEAAh4BAheAFiEENbF99XUld8oMVBzrlL/fRIStFC8FAmYRko4FCRhz
eosACgkQlL/fRIStFC+xRQ/9FXIxAlRjjb0KtJPvbGCSKjVCq5M65vRA5O/l12aR
0I/Qs9pSzxz9eUyOCbf4lxvoz+OLZZN5BaU+2EzAV8wSr34tUMlbSsP2RAHCh8K/
N4viVW55+x4nbGy5Kyl/iGshzV0fraOdxG4CG/gd/Wht5U8VrhjMH49DlrtkhhlM
dePpGE4X157BsjpIBtm7mg+9RdwMFWI5TWh61M5PjnLeduy0IP+WWtqO/qp1aG6B
Tll67PoCxYNnWYTwc7rKSLASAKbcKNX9JYDPgTcDNgYHWPEaA3u0quBaQHB+KrCc
G6QA1CCcUOa0tb9xoZg90LiIhD4Y+0Zzl4Q7KX75MuQV6DrXlSA2garmY9Ayahwk
wIbH2DnQuyidfM/HToFibAqna22QcwqOot0FyW2L+KSlE6LcmmRepYK6mkWff/fr
ZDOVOUm/0OlOx6Sp5mmM6zdU84oer0+hiIIygbjb7NvfZVoIUGqzl9MhvkQB0YWJ
0FbrF24+IKOh8Mr6JvcSeiOvXjqMS4oh4aKaAAS2409//ntw1LPvNa2/Je0lCwSl
T0kug9Ylt54A3JYuboxbcybh46BdT+NjZPw6/4lKZhuGlivqZQu2Fu9reCpnwOwW
onSGA+Uq6Tr62nmuqHNK1dy6JzXUMx4c4LLGSycyjggu9ZVn30AVnoizoEyf37+/
xBe0M0FuZHJlYXMgSy4gSHVldHRlbCAoYXQgd29yaykgPGRpbGZyaWRnZUBnZW50
b28ub3JnPokCVAQTAQoAPgIbAwULCQgHAwUVCgkICwUWAwIBAAIeAQIXgBYhBDWx
ffV1JXfKDFQc65S/30SErRQvBQJmEZKMBQkYc3qLAAoJEJS/30SErRQvF0QP/0lu
8FAjwmQQ3VwxLIsFcVjMmMs3C9mNFK50Kt8tbqZnIDu2/WlPnR/6mbjv4OQjbear
KFXqVMFPGELe2WdtJ4utisJH4xqjjD5IHy56fYHRO4Jq26XSkaVYEpmYt3T0MhVn
P8gICfY/pSCxkBSQtG+9dMZURBF6qCfp5fMSH5N2XN8nKg8hoSBhMk4PX5X+LuFE
8zkqcFL31SBwA2JP5J3fvvmsZnXDw2y+JUiOwqZB2msdC+32caTgNis1axX9O8Fq
MLeuCHm1ehP/kUXaXMvqlt22Hhf1CAraiyg4tURyHHectleH43mmyC7nintIIWGB
ZM4KWvXv9RpHUj1t4d6gxdqLVekZmo8Gy9wJiUF1BdfRJaWaKOBXrepvSbBBe0Hv
9nh7MWCarxYCtC0oktxz/eSWgMvME23HQX3+UCmzSntughCZIFbKEQBZvmzgPkw1
D0cqPhBG/dwkHZrll0km8dWzHoYKD4ZNwkdaPDakDwRaP4XJEiFv4J5riL+1NBtB
M7B0AUVjQayumk5/oceZZ+Pdi9hwi1A7NHvyST3wQEd1yleTlSEwAypauALm7SKg
0j/RsMBHHjDkYLhgLae+wHSffKrDuW+ZHNzkcoIXh82MOPiROR051wd8t9HPpZVJ
M7do1BKa0b7+bgDarK5HPrfNY715r9p3MlPhveeXtDBBbmRyZWFzIEsuIEh1ZXR0
ZWwgKGF0IHdvcmspIDxodWV0dGVsQGdtYWlsLmNvbT6JAlQEEwEKAD4CGwMFCwkI
BwMFFQoJCAsFFgMCAQACHgECF4AWIQQ1sX31dSV3ygxUHOuUv99EhK0ULwUCZhGS
igUJGHN6iwAKCRCUv99EhK0UL9vcEACHXRJEqBhcZT5sh5xPiilg7r/NKhfx23vs
Eb+4JBuh1gBT433csQ8SDmdaPUG7rQOSjJ3SydSt0+bB0JcoVQ5qKaj63eAcCiMJ
94/g9CZcY0N3I8+zY9eQ1Bq6YIiVUZnj0ByWT9eYKHFfVDSFzdRzMddsYTwxJiDn
QwKif01uFVh33BQbwDpHKOJTiSOdyS+aiwAlcD60OFT12M6fCS2EwffjSfToR2Id
Xj8yyf2YzbHYEphUbV/R+xr+zczhKP4quMmZlJZSYhUHl7JsE1nijFphLzHu3fcj
9SCQ4LSHuoMYv0LclpaemF1tgZsRyN4E05YLqcgWQgIS37K3zFsZ0Cu0L0U0P9Nb
JbuUBNFG4nAH5EaRG145q8lZ0OBq/gWNxRcRDowGeENjS3EV//JuqviFITziOSDz
X8/NTH52AmRlWzZR3CA9ThFtAttb0CFKo0kzRnF3Sd3OQkN2n3uDt9DFHLH8mRM5
siGATEJho1qGNjL4G7JAkiH6yxOTInP5kBKLc6+QEcdqfWpzTFczCjh3JdDMCEIZ
HKng1N2BovKBpH4TGtWFFY27SJjpPGGZtdP50HoP0F3SJZzY10h2X4jMBotfVk/I
M8HkXnSFB/xDE1ZIPUGpUUSlnKZYlbxNKWSKoVuhciKp+m4gevxNPZSlBKjkn116
WQqkXOB7C7RHQW5kcmVhcyBLLiBIdWV0dGVsIChhdCB3b3JrKSA8YW5kcmVhcy5o
dWV0dGVsQHBoeXNpay51bmktcmVnZW5zYnVyZy5kZT6JAlQEEwEKAD4CGwMFCwkI
BwMFFQoJCAsFFgMCAQACHgECF4AWIQQ1sX31dSV3ygxUHOuUv99EhK0ULwUCZhGS
iAUJGHN6iwAKCRCUv99EhK0UL41aD/4hafJ88tpBZQic+9l59FqwW4POxRAGvBvN
h/geSPDzTNS+m23XWtRbilk7f3Bsafqr9RuzEhd4pG3GawOkYjlg6HLaXrMlKaq/
/4vSi1HZGM+k/k75JHGxQSvDpsRJ1bN1pqD7Uelnnx/7JcnPPbYoF2E3qSa0pA5k
zSk6PUWsOfCBadzXPwkUDxwEii3rQXgjkhL5aIwWfpFsX1Q6qYUnA6Nk0oohyWIT
yN6wEYYidY1QkOL25mqfsLkf1O7HnU8VBCft6K5VPLGzcge7jjUsWCnoSIsNRy9b
aOJM9lE5VI4+DV2/ToDqeumRf1u32D3+moWC08+VIJZZvPTCS06SfcWlLzarsvfF
kstd3e61SfBVQp7567jiJDoIAnrdvWiQMYJI3+W4D7cdfyIl6INbat9d1gqYSFBw
CptPrHT2p9sdMCTRNIiokp+9QC1gnZC2zhX9Cw7hF5UCio/EMuBYisgZAXshRSfJ
jx6ngmJ/wr2rRjeN3dw/0euwBSJxoNYfDoK0Wsq5yQu6AxX4yHK2F1kBpFKaWCt/
CU/ZZ/FyVeoOyHHGlEQp/yt0Hjk8A3jvwteozxf2d0fdZsfcjc6pP5NOzl5gSdQR
flL9uRgfFAhxGVvxt6AUUME9ve08CFTZMcxn4orEsJJAzs1KZ3wCAJxi4sGhN/kA
u+gmIHF3FrQ+QW5kcmVhcyBLLiBIdWV0dGVsIChhdCB3b3JrKSA8YW5kcmVhcy5o
dWV0dGVsQHBoeXNpay51bmktci5kZT6JAlQEEwEKAD4CGwMFCwkIBwMFFQoJCAsF
FgMCAQACHgECF4AWIQQ1sX31dSV3ygxUHOuUv99EhK0ULwUCZhGShQUJGHN6iwAK
CRCUv99EhK0UL5RPD/wMOrkjXeStHhsN5QYic9llHZcNZn7bM0E05OigytD+mit7
NCUc1zPC9YzoQjJQTTZalWz9e8e63W99mPdfCfFdhEKhM9dW5OLUggwarVHlVJ0W
d3n42L7O8kpxyj8INRb9565uW/rs/MC8r+WtOQz+XewwJSz7AR1SyfnlfjZ+F1jH
cg+SkxbmyYIHMUgPI9X+kuNbMQLzwqXi2OUsg30mLL8j8sxawtX2JVb0gO0P37GS
YVu5ZP2rqYky+Qrar0Ldlx2mXCw4SfbXaAClw7WZM7Fc4uTdvzXgTb/YJ8w8QoaH
ZgSKOR1g+sM4mJF9lmY1jhlR77G20ZaV6BsAw35r8Mcue3ub9Ir9HbRzyg6xBjCX
El2z1afwHzkqR4nmEGGMAAJv9aLo5NcbMi2gDoE/x80MmNa0ALcNjH+TdDqqb280
sno3k49nW8i6ZsDMjLyFMOyJCW/gkrmfKOqBuAK0t6w2hd96jFb8XbUZ/bbWvAkk
evcq2cjMiwj+SklWZl/vMTVi0dKVQntleF2cur9m78o3kstZS9PH+zkdskS9emTs
plqQHwX7IrLdk33uAY7hqQiVnRztfobLbAFYD/AgZlG9c8lBBHA56icu/JVS4IH7
SnLqj3/VKqyWGoLuwnqGVQFI4N51/XAhzdwMRVaTKPKbTJOV+E/fWgFyOW9P5rQ0
QW5kcmVhcyBLLiBIdWV0dGVsIChhdCB3b3JrKSA8YW5kcmVhcy5odWV0dGVsQHVy
LmRlPokCVAQTAQoAPgIbAwULCQgHAwUVCgkICwUWAwIBAAIeAQIXgBYhBDWxffV1
JXfKDFQc65S/30SErRQvBQJmEZKDBQkYc3qLAAoJEJS/30SErRQvJGwP/0KTeLdO
OXMjZnJmjmyGSgghzbzEpcfn//X8Gwe7A1h08RZPBtwotsVHS+/L/LDevIEOW66r
AwfhwYYjGmAplFa963ECCD256lgcOvH3DjvJXry39fdWcu7RPaD1D73iOUVVzoUM
jVs1Tsirbb6DEHy/rS+z9z/Qfnh5EXKl2GMx3igFoalF7i1hc3qSpf0J+WMrNC8c
G5vNio+UoPDBDnTdjtHXgxZ7MMTz4P/dWQO4NUFxSuxZrczc0FDIhLzHtiEQ/pBZ
0ysG6s4cd5X0zXftDkm8bOqvUuGKaFboYtD9kLJUraPqeoHo1JbqF1M9u2ZxJwIT
ksf79kAIH6pt+YGbfD32dkQTIWkTE8izJpgqmsPgX8q2wN4ihTzYGQUQXD3flda4
8qWowgU5M3FWJ1QEL7Ct7UCKJ7g3jUJJbawsIyXPqwBsNZ4xqoj+OFgrFXiJvGYD
dtq0IrXum9ArHZfam087raS8kuIeVnNMasfz+QQLup3cBZjnFAA/Q3MBs3E4lCSn
opWZQVXaWYmM3ztDN1uIEza4hxcAFdGruWOWuJ/cn1z0+hqAr051754EH5vcvJLW
I9Hdl4vLgNuWMqOTVmnXFaXPSIfeo6PnD32yh3amTWtGQlsZio5F+7oeKfJ3P8+c
kiO2TmG3oq7Cok3G30Ndzqp2uhEK7XLYTAZFtD9BbmRyZWFzIEsuIEh1ZXR0ZWwg
KGF0IHdvcmspIDxhbmRyZWFzLmh1ZXR0ZWxAbWF4aW1pbGlhbmV1bS5kZT6JAlQE
EwEKAD4CGwMFCwkIBwMFFQoJCAsFFgMCAQACHgECF4AWIQQ1sX31dSV3ygxUHOuU
v99EhK0ULwUCZhGSgQUJGHN6iwAKCRCUv99EhK0UL6akD/9JMlfSiUd59dxr8HLr
7SAw2XKBGz6mJql05l1VF/qnt2esbg3FtSB0IPvdXj35wrcENnxkMZxnF5y0C4Q0
9SKnCa5XfNe+VcKKE7zTifTAHhisQxGOz9i1l7T+SVE376KqFAtKG3JlMBOmWXe/
cUP7sX1S3zVJS3r0xgmX7waxXcWdBGxFBtpufB0zKo0Dtw0Oir3nnY8hJxI9PyO+
sb56TJIxqUSTZaMiWqzFHq2WL8GhSPMtd4phO76WzDp9BJpwQ7lUi31oAJr621R9
qnQ5cQE5/Q9dK4+imUNTWlMaplAjjSTNF/eXuvSUhOuxOjKeyQuaSqOC9Rws++E/
4CNbC+C6ZHHbNH9tKvnfs455IT+mQyzbLuYj7xR0e2moLh3pCD8XOg1vkkdOROdn
Glh1h0iJro4ZYPj7ZTea7mVuvloP2EvdsimuOtFqaCRBqkKNZ9nbsFidYcc1agsi
ykUGd6Kr58VXvUV7m1wvDRJG8tvW16KuNcaYmcP68SOjEd6CIRYmuCK7P0s5nmGY
84KJAIPYY2v3JeL53rw/tuOXDRToKc3HvwPJmJacsBASzjGf3JGACSeXEUFGXk89
z0Ji21GZbnC0XO852c3j7IF9CnhXUE6AlL72EBAMqgiYO4JVx178nfFMGeHtxpbm
CIC5aSSHVs8NSD0qvRZ7Nk4vWrQsQW5kcmVhcyBLLiBIdWV0dGVsIDxhbmRyZWFz
Lmh1dHRlbEBhYWx0by5maT6JAlQEEwEKAD4CGwMFCwkIBwMFFQoJCAsFFgMCAQAC
HgECF4AWIQQ1sX31dSV3ygxUHOuUv99EhK0ULwUCYF9PWQUJEsE3UAAKCRCUv99E
hK0UL91bD/wKyM2Ff7BrBEi/VVaqkuEdhRPErHsqAnySpJtFz+O8Uue9EO3TQqvX
/Ga/HyfPJUDgJAoiCcaKUw83EfueyYm87YBmBI/n6VcC6jodmsMBD3TrzArid8O3
xq2oZiez0mCCwdaZtBYUwMee5ktdQT7WKH3EhvwvvTQsOiOVZrePVcVd1L9oN4fd
nHnMfi2fshhxBMVLOP3xRWWnHRLP8cZThX0yxtAo7JU6PwL/WO3QkN1Nu6cCVSCZ
mHI67NUrZrscUR53QHQNtHVuQ8kAntOZmFZWnOFs1RTf0xSwyU1PX5ZKNnhBYFEw
eldEujWmx+C5ncw6/PxQ5/w8cfny9Di3rz02gQMbqttaY/kriKKskdccqH6b0/q/
o8Fv7KiGhnjJ0z0orZTCh/OHle3Xe4lZx2VqOarSLTquAcCu+3cEi3O2jqMHhdsn
BaYx0SLZsMGqBMT27kDOFDrVa8RwoW2X7/OK9YVIQK8f50QB8NOS5GrbWC6QAvse
iTziWjHHV+B8DqvgRCI4pYQ+RCOVH8mt05KV/CKqRkM0OVALDy5O83uf3AE1jNy9
wGlB21tkudwEhlpGP7laFDelX+J5N7SGmPBH07lkSwxFaAnULSS6gPljZrejw3U0
GtARCiprCdOq1SvJHf6o/HO5a6M01h0yO4ehqU+OPTwZKBqlRn+wNg==
=FyNj
-----END PGP PUBLIC KEY BLOCK-----
