-----BEGIN PGP PUBLIC KEY BLOCK-----

mQGiBDsblAgRBADB+WkSQ3l54j6niUpIig+DN7z2BFZMrAxHBRaB0trlNfHrUi1Y
oHbj8/zmx8Vht1wrmVIF2Adaf6j2nkJ2JMjKORDwj+zIqLerTHxz91nphaDdpZFa
bIc43v7BtxrOSU+I288+OHeoBCdQWxQAwoKL116I667I/8yPKY/g2/bYmQCg/zqH
+nLj0yQWSIIJnMVqKeMs1bUD/R8jMV3qKHAPB+TyA3/p2NUfh7Pm+fWylftAJGWf
xNIA4qBOKxFVtFKUy2gx+59ftLQsRskWGfyukfqwURPJJSCIuzRkKXyXJZHB/Fi/
hHsul1pVsldszUZpRJ6oDoR7A1g6cT3jCRf5J6yU6IDIbEiic4s6hm9BM8N0UcJk
XPliA/0evoklvI4ml5ZqCSM/o0XGvh3LEIwsveDZb3PDdfLBHN+jWVwrmlyDS3Gm
5VrsEbdJcAqkBeRhsVFgkU79MQxcJsnIY9JioFUUPxIpTEV8iaHPduRoRRquZvag
SGrv5R2dTSyG9oNE+ihSoe1KNNBlh6cb2sxIYFwho+lRNAXLe7QgWGF2aWVyIFJv
Y2hlIDxyb2NoZUBodHRyYWNrLmNvbT6IWQQQEQIAGQIZAQQLBwMCAxUCAwMWAgEC
HgEFAjsblAkACgkQ3PjWWwPzWYiWLgCfYd/8Rs3++SabtZbkw44FqnlihWgAn0HQ
2KXKl19pIOngWh8xFEwYWoSLtCBYYXZpZXIgUm9jaGUgPHhhdmllckBkZWJpYW4u
b3JnPohcBBMRAgAcAhsDAh4BAheABAsHAwIDFQIDAxYCAQUCPtJpbgAKCRDc+NZb
A/NZiDltAKC5BzeNqF9X2xFgfGtNkgTg+mOfpACbBaj5yBrzN9BtaWOvX5OC8zCf
Jm20H1hhdmllciBSb2NoZSA8cm9vdEBodHRyYWNrLmNvbT6IVgQQEQIAFgQLBwMC
AxUCAwMWAgECHgEFAj6dtKQACgkQ3PjWWwPzWYhs6ACg0H+Cc1QSTTYwbGqZUxiW
lO6Ho5wAnA5/0dDIubjz/8hOY0JOWzvRrdD1uQINBDsblAgQCAD2Qle3CH8IF3Ki
utapQvMF6PlTETlPtvFuuUs4INoBp1ajFOmPQFXz0AfGy0OplK33TGSGSfgMg71l
6RfUodNQ+PVZX9x2Uk89PY3bzpnhV5JZzf24rnRPxfx2vIPFRzBhznzJZv8V+bv9
kV7HAarTW56NoKVyOtQa8L9GAFgr5fSI/VhOSdvNILSd5JEHNmszbDgNRR0PfIiz
HHxbLY7288kjwEPwpVsYjY67VYy4XTjTNP18F1dDox0YbN4zISy1Kv884bEpQBgR
jXyEpwpy1obEAxnIByl6ypUM2Zafq9AKUJsCRtMIPWakXUGfnHy9iUsiGSa6q6Je
w1XpMgs7AAICB/9DI3pG8ijq3GvDapsLbcIsckJ+hFGS1uGy2rTpFnh3BXrGcEVY
5f06+xe4U5VxPQURK8IdVr/XwpfGzFr9AmXxYJhzCPbRlnbIUFQrQxwGomjgE+By
BEuWzU3Wg7+/7iiIlDMthqtTFpMywD9bPv75DEO7y6spgPndWj1BF8eNQrbLTjPe
WJiy4vIQA9hn6V0v9pG4NXG6kBw6eSm7CFbEI+FCr+7LyjXHb90Pf9tSPNLEnMOE
FPfeELmN3MfvYP+2JZoorRRrq8M88qhYiPfhZH9WnBCgSTBPMyvQ1dPaUmJT86e0
Jv7biuuYwMGKd3Il9pN+yVna6n/eO4Er7d9qiE4EGBECAAYFAjsblAgAEgkQ3PjW
WwPzWYgHZUdQRwABAahBAKCjxroAig1tqwdOFm8IycjE97QLPACguJ81a1P/UJgz
uW7kOnjZr38ue2M=
=mJTz
-----END PGP PUBLIC KEY BLOCK-----
