-----BEGIN PGP PUBLIC KEY BLOCK-----

mQINBFmSBkgBEAC6nmH9qwNGzkAGfIoeiFsoMnrTbV249WKgPR7zWJcSC10O4Ygh
SakkkzsgQOVY1TxhtTr6wJzPG9d0veFqHEeOMmuZ4Ani/MxqFalmLNemD0zleTFr
Qeji28Z02HMtVh2G2F0Nvx7WF3ssmgJ0ZjAbpfSu6T85UVW7X6fC1M3BEEGSR5kd
BGGCvpFGvnAwEzu29owG7BCzTOf7H9PgpRbxQR3FgEmBNuTytS6hjlB0GMFjyked
W0mj9IkmyCriN+g4ng/LUg3rW/A/WxJ5an1ZR8QBgLwmojmQ1nWhGhaQi05zyzus
aQK+m9DflvwPmAT2QyBLMUy5w/+D3iPrdvTTu00PH5BBffmtmkOcrY8oR/TXBkQw
D4Z7pN7Lbls91coLTyrkRhgNhaVHyLmuXJTqBT3iuuCsDaHJ9T4vb5QAX8JlCb3c
IJbIPQZFQXXF2CUEVij3RKDGidW2gzuEbsKtp9QO6bMaQ4WEE3KVlXrNyHLgFDlH
AXfcbZ8msYXyHdWpaXXFZafXJ1eV/5fpULT0xd0jS/6/h51oJJ79eyekDb6OZP1I
O2r6kRlSM/hOf7XxpMB1m5w1GKDfWr6B+A0UKS01JtXw0U2a55EAA0wrF5LzLfSn
03j/BwU8ufdomEwY8y0TXy6zk7ti6/z6n55d+mj+K4CQ+ByC+e1q8ZUFFwARAQAB
tCRQaGlsaXBwZSBOb3JtYW5kIDxwaGlsQGJhc2UtYXJ0Lm5ldD6JAlQEEwEKAD4C
GwMFCwkIBwMFFQoJCAsFFgIDAQACHgECF4AWIQSBSrAIkVWpBZf06wrbFiTHovKp
SwUCZP2D4gUJEQ8YGgAKCRDbFiTHovKpS34VEACDjal/ecQGw2lFnBVypVLmVOxA
peUpAolUS1hUB1TpE1dt6zGRBaOhOWq50Hzz4LoUUcHWbqa6RTG2j88JiiNg+wPS
LwYwdRBo5RNVTQ9jO8ajusaFsGee4PnF/EiQtzy9Pn46BuJ5bG6wO/2HPF5AaAEm
YaHq1U/2g8wtqWB6suYfNYR9PLwn9fqMC2PWGZV1SFImBqtxlMhL6k6NQ7oYUzkk
1o+9pc5ahCsIoM5SYo4oT8AZIu9WiGwT6pF+L76bKQFFVjB2gSDgObNBU117TSnf
QdbQ8jC7Xf+tZNVb6tb/DcofG+38bDXO569TQzm4fdBVPvy/iOzqexMHPaZsh6ib
LxHKPQaHo3lrY80RjXUg7hEk2VkiUXnhpEEYVenDjJLPypgIXbCNY0kSkgVcVOQS
al45vrZ2GJYDyUajhZu3WurSQVAI3MNkTYJK/I5g+vLQo3UpJ1kUeEfdcRGa8r4H
7YjA7AHr9Dhsc8Ch+AkEmaUKt5pTvJlJEBjOqrj07bG/Y/rFZqHkE9nNluKfoQ9N
0R3LLtGdlJAUPvsvyDaY5rizyzO4Q5HcjT8lnIArdgNHkZjCGB3rfnC3GOsWjgyB
s82BEi7QSPnQX2ESQurADo2550tJFr8PC6T2qy7K6CVw/thOuj0Fl+VIztjyD2jY
EwZOjXPG9TOyoidrobkCDQRZkgZIARAA66w8oBkfUY+HyvbngFfB6hMB2D6qbi3n
33HuR9slf9z9m1xmVmAhiRa6ozKxBc/Tb2hjSe4duYhSwAQsm6iYv0zkL3FDcDDy
/4KJnQx9/Zn8KGN9s0BFFwd/FS26qM8B1rQ+HwyXSbhg4ASJzx6/p54ILYFvHRft
uPAjPH1DIt4rDZ9LB/8MyqGAixj+lUj21zE8+i99egmL0dUo61hYwK/cnQUKcAMt
eLJyNeLz5WL/iPo12BtBRDi9Rpex6md+nDXyahUKtqL/KyUwOn/f6ghhqXC1IjjF
6S7fEnj8DC+lJtd9REDqB4G6YdRzTeJB2dIiIJVK/IKKUX5ultWZnydfYdaOAwYd
4uQt9WbaMwpCwCGz9RoHWiIyYcasGyNf1m5HWQPaLKxtnnSeYqIq9nnvQo7HN/UW
forRZ5te03jMNjGjDcb+LB6ZZbad9GwcZrKlEN2tyFqieer9Sh06eY/YiDFGebeZ
p+4FE0EwR5mSIc4shNWccpYYzN4Xoa3bosOkixi2uKoIP1Msh2OzPJjujiS/xbMv
5TvIaR/d5QzKC4meSNaOiVHS+liC4gk7g9UBO3TlZ77dsdCUuVzk99xILtS2HlLv
+b2CVDxEFAWhpFJg2LPK8v6eysShxx8YqZOwJ9rRrPT/Vkhe7cIBlge+0jxApSZ5
kWSyYgOoMIkAEQEAAYkCPAQYAQoAJgIbDBYhBIFKsAiRVakFl/TrCtsWJMei8qlL
BQJk/YNfBQkRDxeXAAoJENsWJMei8qlLL8AQAIKrV8SVFDEfk6ayCZMg0f76VTli
5wo72yXKcIoOcBZ0TZN6Y59Nl5gFVutlTz70kVF99LeMbx7QwQ/FKoKoTpUCZaSp
lSUZRYWoDNhmGBz3JTcu90TvgZbDktHT549BbOAXX+a2WW6xT62JDywlAh4q6jfs
ya0qjp9qKPVIJTuIhtbMyAJAc/xoDxX4NYwk6vdE7VySYzDVLKYtwQCd808rf1zr
UOx9rAIXUtINVcR8fnwNfR2heV/PBtqh9pd6o9PpyIgYDO7gwNLC2lRy8Q4i3k/3
pCzf9HmYNoo6Df8u1rvAkU/BAShQYzackpXJq8UhEd0FJ6aA5Qy4TqhaOwQClcbm
6VCDfZ9FDKYiK+MKl0x0H6RwdF7EOpt95BccJOIW6iRBvfLYEOsut+JurBOA23le
ZMqbxhah2iEgqOvKktbQpUrgywxCxUzYdbruflLch6JGkSOeFqzJMrYKLgShgB8n
dFH0jaDXT7byzm3+90+vrZXeZ5bvd8Ngw5dLSYcEbRxjxH2mbJ1ofeM2L0dfVK2C
i9gnJaJbPulKTktCnJJHEp9LVAgGYugfKDlUzXTUTkwhXXs/J0f6kMCnyF2PiwaT
EUqgaFfyLW4nwkr/2LkaAdfDNsUOKhpmT5M60mBb5eUf/a/h1tp/nJOr2THeK9DG
9LiyEFo1D7laadD0uQINBFvLZmUBEADW6Fm3PHV55SPRcG7KQsoW2v262gkpvxoU
LaDLx4ae+KfY0ILO2kTd7HMm20I0VXvHGvIDVO72wafeZrmUfX65FkDVpOMOiPQk
KS94QjFuq54163HKdCUQK+BehLyKmmXb8l8+Q2+lrtZUy5DgWplPIPkZ0rSxEzBi
2s6mCqJHEdViEJf88y7s5+UPbtnYW8KJtSEidmoTTt1qIYIPDr46QLW9xCfqwa0i
uPEW4Mfl9ILX4U2tSyKVCDxxtcexo/ZOtfdm8H8kApNT0asCw2V8zgmWcNrYOull
zkZQ4JnSMYC/+A1sUAGEu5vgcwIm1zEZv2+8fnbYqfvLmao9zXECdgHXlIxg4TmV
jbWyVUwk2UaPU0pZg633ix6QcW5RA7HCfoGDoi3tlpsnpugB1pXHUEctm5ISWNIi
GP9pAn6p7VxJvaoI1n2VEazn/CUHX9Q+hij5RaTsV4O14+6VJEU2bjpydOZPMD+d
k/JDN/vTQe51q/I7LSMS8aW+C8bpIXmR6ooTF2wQ6USuQefKqDwytAE8wJAjuJJD
iy6dP3aeTWq9V20wERkNHSXkaO10GM0O9VyUn6Dw5cEMk+t1RTM/tl3Vg1oMDEus
lMDM68xqlxTnS8aqLaTZS/zaO4QyPkVyNfw1FwtoUeQh/IJAMULqlFcua1kDFvqQ
+kx6KrvGjQARAQABiQI2BBgBCgAgFiEEgUqwCJFVqQWX9OsK2xYkx6LyqUsFAlvL
ZmUCGyAACgkQ2xYkx6LyqUsZJxAAowEtne1M9hh+jETzcqpNdoC5OeGwofI+fMMX
NDqGSg1AcvnBX/33pOG3CardeuI+yY2MGF8RegnCXhqilqnAmqy8SrAIrTnrTV+9
4QyGcpElYY9oS9S8FBdVfnnrTPPf/g+3/xg0LsV5t1n/FerCRq65Z1ZLvaNZ58LG
0O2dKhFqYVgX3hra7h2lhvqSO3LC5o89VY+uaZRWagQ2Axp75h8Pp4DnexUfYm/8
9YoH5eOK5nss1FiVky9D6ZSfQCrSEJmNafuMlhPei821017EGSk+EtniYpABfmM4
0s7s+gmaw0+AxQAZh54T/0etCvKOlMiv+mmuGR8yY2tuTsi3HONkCYv9f87pQ64R
a8CnjMYHdjiBU8lRsdxEL8FVzRKDnjJZtaUBXvOq0JjUIuVUjA+5uQqw3CfrcmdR
siKGR3McgkAL8IT6j4ITbMKz2DBBEm2qprRHzAzIBtlJjbAo40WXJSvX9AUaUlSY
T/od4iU7nH3ooPzzdQvAQOsLEFuUWmWioJXxVJkvG6zX0SMwadEBkvrRrDQ+whYv
7OnBz6qtYIUwI5D4eRbouafpeYKbpzNqV/oLs/aDwtMTdaPSEcExwOop3xhTWuN/
7l3XCov0JRqJKhFtixlV2s81Ul8AQrycgqQtZgSolHNeUTf0VLNaezXFQSKVtCQz
1HAkw5E=
=ZW25
-----END PGP PUBLIC KEY BLOCK-----
